X:1
T: The Humors of Limerick
C:
R:Jig
Q:180
K:G
M:6/8
L:1/16
G4B2 d4B2|g4e2 d4B2|G4B2 d4B2|A2c2A2 B2G2E2|G4B2 d4B2|g4e2 d4f2|g4e2 d4B2|A2c2A2 B2G2E2|
G4B2 d4B2|g4e2 d4B2|G4B2 d4B2|A2c2A2 B2G2E2|G4B2 d4B2|g4e2 d4f2|g4e2 d4B2|A2c2A2 B2G2E2|
g4a2 b4g2|a4a2 a2g2e2|g4a2 b4a2|g4g2 g2e2d2|g4a2 b4g2|a4a2 a2g2e2|g4e2 d4B2|A2c2A2 B2G2E2|
g4a2 b4g2|a4a2 a2g2e2|g4a2 b4a2|g4g2 g2e2d2|g4a2 b4g2|a4a2 a2g2e2|g4e2 d4B2|A2c2A2 B2G2E2||
